assets/Straight ruler/Flat/straight_ruler_flat.svg

<svg width="32" height="32" viewBox="0 0 32 32" fill="none" xmlns="http://www.w3.org/2000/svg">
<path d="M21.9125 29.37L2.6525 10.11C1.7825 9.23997 1.7825 7.83997 2.6525 6.97997L6.9625 2.67997C7.73082 1.91164 8.9125 1.82185 9.77055 2.41058L9.6602 3.16424L10.4643 3.05179L12.1359 4.72332V5.41499H12.8275L14.574 7.16146L14.4615 7.97711L15.2599 7.84737L16.9487 9.5362L16.8219 10.3374L17.6058 10.1933L19.358 11.9455L19.2398 12.7554L20.0324 12.6199L21.6924 14.2799L21.6117 15.0235L22.3553 14.9428L24.1306 16.718L24.0585 17.4703L24.8107 17.3982L26.488 19.0755L26.4015 19.8133L27.1393 19.7268L28.9723 21.5597V22.238H29.6002C30.2018 23.1043 30.1159 24.2955 29.3425 25.06L25.0425 29.36C24.1825 30.23 22.7725 30.23 21.9125 29.37Z" fill="#BEBEBE"/>
<path d="M28.9291 21.5165L29.3426 21.9301C29.443 22.0305 29.5318 22.1379 29.609 22.2508L27.7062 24.1536C27.5109 24.3489 27.1943 24.3489 26.9991 24.1536C26.8038 23.9584 26.8038 23.6418 26.9991 23.4465L28.9291 21.5165Z" fill="#8D65C5"/>
<path d="M26.4494 19.0368L27.1566 19.744L25.9819 20.9578C25.7899 21.1562 25.4734 21.1614 25.2749 20.9694C25.0765 20.7773 25.0713 20.4608 25.2633 20.2624L26.4494 19.0368Z" fill="#8D65C5"/>
<path d="M24.1091 16.6965L24.8162 17.4036L22.8862 19.3336C22.6909 19.5289 22.3743 19.5289 22.1791 19.3336C21.9838 19.1384 21.9838 18.8218 22.1791 18.6265L24.1091 16.6965Z" fill="#8D65C5"/>
<path d="M21.6694 14.2568L22.3766 14.964L21.2019 16.1778C21.0099 16.3762 20.6934 16.3814 20.4949 16.1894C20.2965 15.9973 20.2913 15.6808 20.4833 15.4824L21.6694 14.2568Z" fill="#8D65C5"/>
<path d="M19.3291 11.9165L20.0362 12.6236L18.1062 14.5536C17.9109 14.7489 17.5943 14.7489 17.3991 14.5536C17.2038 14.3584 17.2038 14.0418 17.3991 13.8465L19.3291 11.9165Z" fill="#8D65C5"/>
<path d="M16.9092 9.49667L17.6164 10.2038L16.4291 11.4107C16.2354 11.6076 15.9188 11.6102 15.722 11.4165C15.5251 11.2229 15.5225 10.9063 15.7162 10.7094L16.9092 9.49667Z" fill="#8D65C5"/>
<path d="M14.5591 7.14652L15.2662 7.85363L13.3362 9.78362C13.1409 9.97889 12.8243 9.97889 12.6291 9.78362C12.4338 9.58836 12.4338 9.27178 12.6291 9.07652L14.5591 7.14652Z" fill="#8D65C5"/>
<path d="M12.1293 4.71674L12.8365 5.4239L11.6605 6.62923C11.4677 6.82689 11.1511 6.8308 10.9535 6.63796C10.7558 6.44512 10.7519 6.12857 10.9447 5.93091L12.1293 4.71674Z" fill="#8D65C5"/>
<path d="M10.4862 3.07363L8.55619 5.00362C8.36093 5.19888 8.04435 5.19888 7.84908 5.00362C7.65382 4.80836 7.65382 4.49178 7.84908 4.29652L9.74936 2.39624C9.87074 2.47744 9.98584 2.57205 10.0926 2.68007L10.4862 3.07363Z" fill="#8D65C5"/>
</svg>

<svg xmlns="http://www.w3.org/2000/svg" width="32" height="32" fill="none"><path fill="#BEBEBE" d="M21.913 29.37 2.652 10.11c-.87-.87-.87-2.27 0-3.13l4.31-4.3a2.206 2.206 0 0 1 2.808-.27l-.11.754.803-.112 1.672 1.671v.692h.692l1.746 1.746-.113.816.799-.13 1.689 1.69-.127.8.784-.144 1.752 1.752-.118.81.792-.135 1.66 1.66-.08.744.743-.081 1.776 1.775-.073.752.753-.072 1.677 1.678-.087.737.738-.086 1.833 1.833v.678h.628a2.2 2.2 0 0 1-.258 2.822l-4.3 4.3c-.86.87-2.27.87-3.13.01Z"/><path fill="#8D65C5" d="m28.93 21.517.413.413c.1.1.189.208.266.32l-1.903 1.904a.5.5 0 1 1-.707-.707l1.93-1.93ZM26.45 19.037l.707.707-1.175 1.214a.5.5 0 0 1-.719-.696l1.186-1.225ZM24.11 16.697l.706.707-1.93 1.93a.5.5 0 1 1-.707-.707l1.93-1.93ZM21.67 14.257l.707.707-1.175 1.214a.5.5 0 0 1-.719-.696l1.186-1.225ZM19.33 11.916l.706.708-1.93 1.93a.5.5 0 1 1-.707-.707l1.93-1.93ZM16.91 9.497l.706.707-1.187 1.207a.5.5 0 1 1-.713-.702l1.193-1.212ZM14.56 7.147l.706.707-1.93 1.93a.5.5 0 1 1-.707-.707l1.93-1.93ZM12.13 4.717l.706.707-1.175 1.205a.5.5 0 1 1-.716-.698l1.184-1.214ZM10.486 3.074l-1.93 1.93a.5.5 0 0 1-.707-.707l1.9-1.9c.122.08.237.175.344.283l.393.394Z"/></svg>
